X:1
T:The Pondering Jig
M:6/8
L:1/8
K:D
|:DFA cde|dcA GAB|FAd EAc|(3cdc A GAB|
DFA cde|dcA GAB|AdB cAF|EDC D3:|
K:G
|:A,AB cBA|eag edc|BGG dGG|cdc BAG|
A,AB cBA|eag edc|Bdg gdB|ABA A3:|
